web/mps/mps-text.svg

<svg height="142" viewBox="0 0 370 142" width="370" xmlns="http://www.w3.org/2000/svg"><path d="m0 1.998h33.17189l36.76869 59.14854 36.7687-59.14854h33.17189v139.88118h-30.57406v-91.32311l-39.36653 59.74925h-.799l-38.96743-59.14858v90.72243h-30.17415z"/><path d="m149.86373 1.998h57.1514c33.37184 0 53.5546 19.78365 53.5546 48.359v.39831c0 32.37368-25.17845 49.15878-56.55153 49.15878h-23.38045v41.96517h-30.774zm55.15344 70.53887c15.387 0 24.37943-9.19157 24.37943-21.18093v-.39994c0-13.78817-9.59229-21.18254-24.9793-21.18254h-23.77955v42.76337z"/><path d="m259.07913 121.49646 18.18479-21.78161c12.58922 10.39131 25.77832 16.98586 41.7652 16.98586 12.58842 0 20.18195-4.9949 20.18195-13.1891v-.39991c0-7.79429-4.79574-11.79021-28.17539-17.78408-28.17619-7.19522-46.361-14.9879-46.361-42.76339v-.40152c.00002-25.37761 20.38272-42.16271 48.95802-42.16271 20.38271 0 37.76848 6.39379 51.95655 17.78408l-15.98688 23.1805c-12.38927-8.59251-24.57938-13.78817-36.368-13.78817-11.791 0-17.98564 5.39481-17.98564 12.18851v.40152c0 9.19157 5.99468 12.18851 30.17415 18.38315 28.37615 7.39438 44.363 17.58654 44.363 41.96517v.39991c0 27.77548-21.18253 43.36245-51.35748 43.36245a89.01108 89.01108 0 0 1 -59.34927-22.38066z"/></svg>

<svg id="Layer_1" data-name="Layer 1" xmlns="http://www.w3.org/2000/svg" width="370" height="142" viewBox="0 0 370 142">
  <title>mps_text</title>
  <g id="_Group_" data-name="&lt;Group&gt;">
    <path id="_Compound_Path_" data-name="&lt;Compound Path&gt;" d="M0,1.998H33.17189L69.94058,61.14654,106.70928,1.998h33.17189V141.87918H109.30711V50.55607L69.94058,110.30532h-.799L30.17415,51.15674v90.72243H0Z"/>
    <path id="_Compound_Path_2" data-name="&lt;Compound Path&gt;" d="M149.86373,1.998h57.1514c33.37184,0,53.5546,19.78365,53.5546,48.359v.39831c0,32.37368-25.17845,49.15878-56.55153,49.15878H180.63775v41.96517h-30.774Zm55.15344,70.53887c15.387,0,24.37943-9.19157,24.37943-21.18093V50.956c0-13.78817-9.59229-21.18254-24.9793-21.18254H180.63775V72.53683Z"/>
    <path id="_Compound_Path_3" data-name="&lt;Compound Path&gt;" d="M259.07913,121.49646l18.18479-21.78161c12.58922,10.39131,25.77832,16.98586,41.7652,16.98586,12.58842,0,20.18195-4.9949,20.18195-13.1891v-.39991c0-7.79429-4.79574-11.79021-28.17539-17.78408-28.17619-7.19522-46.361-14.9879-46.361-42.76339v-.40152C264.6747,16.7851,285.0574,0,313.6327,0c20.38271,0,37.76848,6.39379,51.95655,17.78408l-15.98688,23.1805c-12.38927-8.59251-24.57938-13.78817-36.368-13.78817-11.791,0-17.98564,5.39481-17.98564,12.18851v.40152c0,9.19157,5.99468,12.18851,30.17415,18.38315,28.37615,7.39438,44.363,17.58654,44.363,41.96517v.39991c0,27.77548-21.18253,43.36245-51.35748,43.36245A89.01108,89.01108,0,0,1,259.07913,121.49646Z"/>
  </g>
</svg>
